icons/ccgt.svg

<?xml version="1.0" encoding="utf-8"?>
<!-- Generator: Adobe Illustrator 25.1.0, SVG Export Plug-In . SVG Version: 6.00 Build 0)  -->
<svg version="1.1"
	 id="svg8" inkscape:version="1.0.1 (3bc2e813f5, 2020-09-07)" sodipodi:docname="template.svg" xmlns:cc="http://creativecommons.org/ns#" xmlns:dc="http://purl.org/dc/elements/1.1/" xmlns:inkscape="http://www.inkscape.org/namespaces/inkscape" xmlns:rdf="http://www.w3.org/1999/02/22-rdf-syntax-ns#" xmlns:sodipodi="http://sodipodi.sourceforge.net/DTD/sodipodi-0.dtd" xmlns:svg="http://www.w3.org/2000/svg"
	 xmlns="http://www.w3.org/2000/svg" xmlns:xlink="http://www.w3.org/1999/xlink" x="0px" y="0px" viewBox="0 0 48 48"
	 style="enable-background:new 0 0 48 48;" xml:space="preserve">
<style type="text/css">
	.st0{fill:none;stroke:#FFFFFF;stroke-linecap:round;stroke-linejoin:round;stroke-miterlimit:10;}
</style>
<sodipodi:namedview  bordercolor="#666666" borderopacity="1" gridtolerance="10" guidetolerance="10" id="namedview10" inkscape:current-layer="svg8" inkscape:cx="84.508032" inkscape:cy="22.867641" inkscape:document-rotation="0" inkscape:guide-bbox="true" inkscape:pageopacity="0" inkscape:pageshadow="2" inkscape:window-height="2098" inkscape:window-maximized="1" inkscape:window-width="3840" inkscape:window-x="0" inkscape:window-y="25" inkscape:zoom="1.6491" objecttolerance="10" pagecolor="#595959" showgrid="false" showguides="true">
	</sodipodi:namedview>
<g>
	<g>
		<g>
			<path class="st0" d="M32.6,19.3v8.8c0,1.6-1.3,2.9-2.9,2.9h0c-0.8,0-1.5-0.3-2.1-0.9"/>
			<path class="st0" d="M29.6,19.3L29.6,19.3c1.6,0,2.9,1.3,2.9,2.9v1.9c0,1.6-1.3,2.9-2.9,2.9h0c-1.6,0-2.9-1.3-2.9-2.9v-1.9
				C26.7,20.6,28,19.3,29.6,19.3z"/>
		</g>
		<g>
			<path class="st0" d="M36.8,16.9v8.8c0,0.8,0.7,1.5,1.5,1.5h0.4"/>
			<line class="st0" x1="35.2" y1="19.3" x2="38.3" y2="19.3"/>
		</g>
		<path class="st0" d="M15.5,25.6c-0.5,0.9-1.5,1.5-2.6,1.5h0c-1.6,0-2.9-1.3-2.9-2.9v-1.9c0-1.6,1.3-2.9,2.9-2.9h0
			c1.1,0,2,0.6,2.6,1.5"/>
		<path class="st0" d="M24,25.6c-0.5,0.9-1.5,1.5-2.6,1.5h0c-1.6,0-2.9-1.3-2.9-2.9v-1.9c0-1.6,1.3-2.9,2.9-2.9h0
			c1.1,0,2,0.6,2.6,1.5"/>
	</g>
	<path class="st0" d="M40.5,42.5h-33c-1.1,0-2-0.9-2-2v-33c0-1.1,0.9-2,2-2h33c1.1,0,2,0.9,2,2v33C42.5,41.6,41.6,42.5,40.5,42.5z"
		/>
</g>
</svg>

<svg xmlns="http://www.w3.org/2000/svg" viewBox="0 0 48 48"><defs><style>.a{fill:none;stroke:#fff;stroke-linecap:round;stroke-linejoin:round;}</style></defs><path class="a" d="M32.6,19.3v8.8A2.9,2.9,0,0,1,29.7,31h0a2.88,2.88,0,0,1-2.1-.9"/><path class="a" d="M29.6,19.3h0a2.9,2.9,0,0,1,2.9,2.9v1.9A2.9,2.9,0,0,1,29.6,27h0a2.9,2.9,0,0,1-2.9-2.9V22.2A2.9,2.9,0,0,1,29.6,19.3Z"/><path class="a" d="M36.8,16.9v8.8a1.54,1.54,0,0,0,1.5,1.5h.4"/><line class="a" x1="35.2" y1="19.3" x2="38.3" y2="19.3"/><path class="a" d="M15.5,25.6a3,3,0,0,1-2.6,1.5h0A2.9,2.9,0,0,1,10,24.2V22.3a2.9,2.9,0,0,1,2.9-2.9h0a3.11,3.11,0,0,1,2.6,1.5"/><path class="a" d="M24,25.6a3,3,0,0,1-2.6,1.5h0a2.9,2.9,0,0,1-2.9-2.9V22.3a2.9,2.9,0,0,1,2.9-2.9h0A3.11,3.11,0,0,1,24,20.9"/><path class="a" d="M40.5,42.5H7.5a2,2,0,0,1-2-2V7.5a2,2,0,0,1,2-2h33a2,2,0,0,1,2,2v33A2,2,0,0,1,40.5,42.5Z"/></svg>
